libs/ui/packages/crypto-icons/src/svg/DCR.svg

<svg width="24" height="24" viewBox="0 0 24 24" fill="none">
<path d="M11.1419 13.215H14.4569C14.7511 13.2141 15.0423 13.1553 15.3137 13.0419C15.5852 12.9285 15.8317 12.7627 16.0391 12.5541C16.2465 12.3454 16.4107 12.098 16.5225 11.8258C16.6343 11.5537 16.6913 11.2622 16.6904 10.968C16.692 10.374 16.4576 9.80364 16.0388 9.38241C15.6199 8.96118 15.051 8.72354 14.4569 8.72175H13.4024L11.1419 6.75H14.4569C15.432 6.75233 16.3758 7.0937 17.1268 7.71561C17.8777 8.33751 18.389 9.20123 18.5729 10.1588C18.7608 11.1168 18.6109 12.1104 18.1489 12.9704C17.6869 13.8305 16.9412 14.5039 16.0387 14.8763L18.6524 17.1578H15.6592L11.1419 13.2143V13.215ZM12.7597 10.695H9.44468C8.85079 10.6968 8.28191 10.9343 7.86309 11.3554C7.44427 11.7765 7.20979 12.3466 7.21118 12.9405C7.20959 13.5345 7.44399 14.1049 7.86283 14.5261C8.28167 14.9473 8.85066 15.185 9.44468 15.1868H10.4999L12.7589 17.1593H9.44468C8.46966 17.1569 7.5258 16.8156 6.77486 16.1936C6.02391 15.5717 5.51265 14.708 5.32868 13.7505C5.14084 12.7924 5.29067 11.7989 5.7527 10.9388C6.21472 10.0788 6.96041 9.40531 7.86293 9.033L5.25143 6.75H8.24468L12.7597 10.695Z" fill="white"/>
<path d="M11.1909 13.2604H14.5059C14.8 13.2595 15.0912 13.2007 15.3626 13.0873C15.6341 12.9739 15.8806 12.8081 16.088 12.5994C16.2954 12.3908 16.4596 12.1433 16.5714 11.8712C16.6832 11.5991 16.7402 11.3076 16.7394 11.0134C16.7409 10.4193 16.5066 9.84901 16.0877 9.42778C15.6689 9.00655 15.0999 8.76891 14.5059 8.76712H13.4514L11.1909 6.79537H14.5059C15.4809 6.7977 16.4247 7.13907 17.1757 7.76098C17.9266 8.38288 18.4379 9.24661 18.6219 10.2041C18.8097 11.1622 18.6599 12.1557 18.1978 13.0158C17.7358 13.8759 16.9901 14.5493 16.0876 14.9216L18.7014 17.2031H15.7081L11.1909 13.2596V13.2604ZM12.8086 10.7404H9.4936C8.89971 10.7422 8.33083 10.9797 7.91201 11.4008C7.49319 11.8218 7.25871 12.392 7.2601 12.9859C7.25851 13.5799 7.4929 14.1502 7.91175 14.5715C8.33059 14.9927 8.89958 15.2303 9.4936 15.2321H10.5489L12.8079 17.2046H9.4936C8.51858 17.2023 7.57472 16.8609 6.82378 16.239C6.07283 15.6171 5.56157 14.7534 5.3776 13.7959C5.18976 12.8378 5.33959 11.8443 5.80162 10.9842C6.26364 10.1241 7.00933 9.45069 7.91185 9.07837L5.30035 6.79537H8.2936L12.8086 10.7404Z" fill="#2ED6A1"/>
</svg>

<svg width="24" height="24" viewBox="0 0 24 24" fill="none"><path fill="#fff" d="M11.142 13.215h3.315a2.24 2.24 0 0 0 2.233-2.247 2.24 2.24 0 0 0-2.233-2.246h-1.055l-2.26-1.972h3.315a4.2 4.2 0 0 1 4.116 3.409 4.224 4.224 0 0 1-2.534 4.717l2.613 2.282H15.66zm1.618-2.52H9.445a2.24 2.24 0 0 0-2.234 2.246 2.24 2.24 0 0 0 2.234 2.246H10.5l2.259 1.972H9.445a4.2 4.2 0 0 1-4.116-3.408 4.224 4.224 0 0 1 2.534-4.718L5.25 6.75h2.994z"/><path fill="#2ed6a1" d="M11.19 13.26h3.316a2.24 2.24 0 0 0 2.233-2.247 2.24 2.24 0 0 0-2.233-2.246H13.45l-2.26-1.972h3.315a4.2 4.2 0 0 1 4.116 3.41 4.224 4.224 0 0 1-2.534 4.717l2.613 2.281h-2.993zm1.619-2.52H9.494a2.24 2.24 0 0 0-2.234 2.246 2.24 2.24 0 0 0 2.234 2.246h1.055l2.259 1.973H9.494a4.2 4.2 0 0 1-4.116-3.41 4.224 4.224 0 0 1 2.534-4.717L5.3 6.795h2.994z"/></svg>
